X:1
T: Reel des Acadiens
I: Reel des Acadiens	R-125	A	reel
C: E. Arsenault
M: C|
R: reel
K: A
af| "A"eece AAce| fece "D"feaf| "A"eece "D"feaf| "A"ecAc "E"B2af|
    "A"eece AAce| fece "D"feaf| "A"eece "D"feaf |1 "A"ec"E"Bc "A"A2 :|2 "A"ec"E"Bc "A"A3 |]
|:A| "A"ABcd eeea| "D"feaf "A"ecBc| ABcd eeea| "B7"fecA "E"B2BB|
   "A"ABcd eeea| "D"feaf "A"ecBc| ABcd eeaf |1 "E"ecBc "A"A3 :|2 "E"ecBc "A"A2 |]
%%text Roaring Jelly  R-125

